X:1164
T:Gladers polska
R:Polska
Z:Klas Krantz, 2006
O:Västergötland
S:Allmän i Västergötland
N:Låten är mycket lik en polska efter Carl Aron Hakberg
N:upptecknad i Svenska Låtar Västergötland, nr 48. Se [[Musik/1473]].
L:1/8
M:3/4
K:D
"D"D>F F>A A>d | "A"dc/d/ e>c A>f | fe/f/ g>f "Em"e>d  | c>B A>G "A7"F>E |
"D"D>F F>A A>d | "A"dc/d/ e>c A>f | fe/f/ g>f "Em"e>d  |  "A7"c>e "D"d4 :|
"D"d>fa2f2 | "A"fe/f/g2e2 | e>f g>f "Em"e>d | c>B A>G "A7"F>G |
"D"A2a2f2 | "A"fe/f/g2e2 | e>f g>f "Em"e>d | "A7"c>e "D"d4 :|]
(:musicend:)
[[!Ackord]]

(:music:)
